src/data/flags/hiroshima.svg

<?xml version="1.0" encoding="UTF-8" standalone="no"?>
<svg
   xmlns:svg="http://www.w3.org/2000/svg"
   xmlns="http://www.w3.org/2000/svg"
   version="1.1"
   width="900"
   height="600">
  <rect width="900" height="600" style="fill:#ab3748"/>
  <path d="M 494.14517,414.11975 C 446.04059,414.11975 402.98976,389.59207 374.01542,350.94687 C 395.7464,365.84014 421.21027,374.41713 448.44167,374.41713 C 528.12677,374.41713 592.72352,310.39648 592.72352,210.54649 C 592.72352,264.3721 549.09111,308.00816 495.26184,308.00816 C 441.43533,308.00816 397.80018,264.3721 397.80018,210.54649 C 397.80018,169.64514 423.00698,134.65079 458.7242,120.19234 C 456.19094,120.0866 453.65495,120 451.09526,120 C 417.08176,120 385.28701,129.44754 358.16501,145.84855 C 358.17048,145.83761 358.17686,145.82667 358.18324,145.81482 C 305.9948,177.33335 271.09526,234.5883 271.09526,300 C 271.09526,399.41335 351.68373,480 451.09526,480 C 540.95441,480 615.4235,414.14892 628.90475,328.07187 C 601.12914,379.68328 551.17314,414.11975 494.14517,414.11975 z"
     style="fill:#fff"/>
</svg>

<svg xmlns="http://www.w3.org/2000/svg" width="900" height="600"><path fill="#ab3748" d="M0 0h900v600H0z"/><path d="M494.145 414.12c-48.104 0-91.155-24.528-120.13-63.173 21.731 14.893 47.195 23.47 74.427 23.47 79.685 0 144.282-64.02 144.282-163.87 0 53.825-43.633 97.461-97.462 97.461-53.827 0-97.462-43.636-97.462-97.462 0-40.9 25.207-75.895 60.924-90.354-2.533-.105-5.07-.192-7.629-.192-34.013 0-65.808 9.448-92.93 25.849l.018-.034c-52.188 31.518-87.088 88.773-87.088 154.185 0 99.413 80.589 180 180 180 89.86 0 164.328-65.851 177.81-151.928-27.776 51.611-77.732 86.048-134.76 86.048z" fill="#fff"/></svg>
